cs_client/src/assets/icons/cherrytree/edit-paste.svg

<?xml version="1.0" encoding="UTF-8" standalone="no"?>
<!-- Created with Inkscape (http://www.inkscape.org/) -->
<svg
   xmlns:dc="http://purl.org/dc/elements/1.1/"
   xmlns:cc="http://web.resource.org/cc/"
   xmlns:rdf="http://www.w3.org/1999/02/22-rdf-syntax-ns#"
   xmlns:svg="http://www.w3.org/2000/svg"
   xmlns="http://www.w3.org/2000/svg"
   xmlns:xlink="http://www.w3.org/1999/xlink"
   xmlns:sodipodi="http://sodipodi.sourceforge.net/DTD/sodipodi-0.dtd"
   xmlns:inkscape="http://www.inkscape.org/namespaces/inkscape"
   width="48"
   height="48"
   id="svg7854"
   sodipodi:version="0.32"
   inkscape:version="0.45"
   version="1.0"
   sodipodi:docbase="/home/dobey/Projects/gnome-icon-theme/scalable/actions"
   sodipodi:docname="edit-paste.svg"
   inkscape:output_extension="org.inkscape.output.svg.inkscape">
  <defs
     id="defs7856">
    <linearGradient
       inkscape:collect="always"
       id="linearGradient5788">
      <stop
         style="stop-color:#ffffff;stop-opacity:1;"
         offset="0"
         id="stop5790" />
      <stop
         style="stop-color:#ffffff;stop-opacity:0;"
         offset="1"
         id="stop5792" />
    </linearGradient>
    <linearGradient
       id="linearGradient5772">
      <stop
         id="stop5774"
         offset="0"
         style="stop-color:#e2b369;stop-opacity:1" />
      <stop
         id="stop5776"
         offset="1"
         style="stop-color:#c79b55;stop-opacity:1" />
    </linearGradient>
    <linearGradient
       id="linearGradient5586">
      <stop
         style="stop-color:#bfbcb3;stop-opacity:1;"
         offset="0"
         id="stop5588" />
      <stop
         style="stop-color:#9c988a;stop-opacity:1;"
         offset="1"
         id="stop5590" />
    </linearGradient>
    <linearGradient
       inkscape:collect="always"
       xlink:href="#linearGradient5586"
       id="linearGradient5592"
       x1="24.635435"
       y1="7.202693"
       x2="24.635435"
       y2="12.380689"
       gradientUnits="userSpaceOnUse" />
    <filter
       inkscape:collect="always"
       x="-0.085321058"
       width="1.1706421"
       y="-0.73719835"
       height="2.4743967"
       id="filter5670">
      <feGaussianBlur
         inkscape:collect="always"
         stdDeviation="0.38394476"
         id="feGaussianBlur5672" />
    </filter>
    <filter
       inkscape:collect="always"
       x="-0.090666526"
       width="1.1813331"
       y="-0.31875174"
       height="1.6375035"
       id="filter5766">
      <feGaussianBlur
         inkscape:collect="always"
         stdDeviation="0.79295562"
         id="feGaussianBlur5768" />
    </filter>
    <linearGradient
       inkscape:collect="always"
       xlink:href="#linearGradient5772"
       id="linearGradient5784"
       gradientUnits="userSpaceOnUse"
       x1="25.5"
       y1="-13.625"
       x2="26"
       y2="-39.125" />
    <linearGradient
       inkscape:collect="always"
       xlink:href="#linearGradient5788"
       id="linearGradient5794"
       x1="24.499998"
       y1="-38.500011"
       x2="24.499998"
       y2="-1.6250113"
       gradientUnits="userSpaceOnUse" />
    <filter
       inkscape:collect="always"
       x="-0.083650827"
       width="1.1673017"
       y="-0.4520362"
       height="1.9040724"
       id="filter5830">
      <feGaussianBlur
         inkscape:collect="always"
         stdDeviation="1.4691176"
         id="feGaussianBlur5832" />
    </filter>
    <linearGradient
       id="linearGradient6732">
      <stop
         style="stop-color:#ffffff;stop-opacity:1;"
         offset="0"
         id="stop6734" />
      <stop
         style="stop-color:#dddddd;stop-opacity:1;"
         offset="1"
         id="stop6736" />
    </linearGradient>
    <linearGradient
       inkscape:collect="always"
       xlink:href="#linearGradient6732"
       id="linearGradient5968"
       gradientUnits="userSpaceOnUse"
       gradientTransform="matrix(0.9716096,0,0,1.283333,-40.47809,-6.1310478)"
       x1="37.926636"
       y1="37.668934"
       x2="5.4959755"
       y2="10.982666" />
  </defs>
  <sodipodi:namedview
     id="base"
     pagecolor="#ffffff"
     bordercolor="#e0e0e0"
     borderopacity="1"
     gridtolerance="10000"
     guidetolerance="10"
     objecttolerance="10"
     inkscape:pageopacity="0.0"
     inkscape:pageshadow="2"
     inkscape:zoom="1"
     inkscape:cx="28.423368"
     inkscape:cy="-1.7891881"
     inkscape:document-units="px"
     inkscape:current-layer="layer1"
     width="48px"
     height="48px"
     inkscape:showpageshadow="false"
     inkscape:window-width="1129"
     inkscape:window-height="965"
     inkscape:window-x="403"
     inkscape:window-y="131"
     showgrid="false" />
  <metadata
     id="metadata7859">
    <rdf:RDF>
      <cc:Work
         rdf:about="">
        <dc:format>image/svg+xml</dc:format>
        <dc:type
           rdf:resource="http://purl.org/dc/dcmitype/StillImage" />
        <dc:creator>
          <cc:Agent>
            <dc:title>Jakub Steiner</dc:title>
          </cc:Agent>
        </dc:creator>
        <dc:source>http://jimmac.musichall.cz</dc:source>
        <cc:license
           rdf:resource="http://creativecommons.org/licenses/GPL/2.0/" />
        <dc:title>Paste</dc:title>
        <dc:subject>
          <rdf:Bag>
            <rdf:li>edit</rdf:li>
            <rdf:li>paste</rdf:li>
          </rdf:Bag>
        </dc:subject>
      </cc:Work>
      <cc:License
         rdf:about="http://creativecommons.org/licenses/GPL/2.0/">
        <cc:permits
           rdf:resource="http://web.resource.org/cc/Reproduction" />
        <cc:permits
           rdf:resource="http://web.resource.org/cc/Distribution" />
        <cc:requires
           rdf:resource="http://web.resource.org/cc/Notice" />
        <cc:permits
           rdf:resource="http://web.resource.org/cc/DerivativeWorks" />
        <cc:requires
           rdf:resource="http://web.resource.org/cc/ShareAlike" />
        <cc:requires
           rdf:resource="http://web.resource.org/cc/SourceCode" />
      </cc:License>
    </rdf:RDF>
  </metadata>
  <g
     inkscape:label="Layer 1"
     inkscape:groupmode="layer"
     id="layer1">
    <rect
       ry="7.272984"
       rx="4.4858322"
       y="38.438263"
       x="19.514534"
       height="6.5"
       width="35.125"
       id="rect5984"
       style="opacity:0.35294118;color:#000000;fill:#000000;fill-opacity:1;fill-rule:nonzero;stroke:none;stroke-width:1;stroke-linecap:butt;stroke-linejoin:miter;marker:none;marker-start:none;marker-mid:none;marker-end:none;stroke-miterlimit:4;stroke-dasharray:none;stroke-dashoffset:0;stroke-opacity:1;visibility:visible;display:block;overflow:visible;filter:url(#filter5830);enable-background:accumulate"
       transform="matrix(0.7245031,0,0,0.4468592,6.1716863,23.280448)" />
    <rect
       style="opacity:0.41764706;color:#000000;fill:#000000;fill-opacity:1;fill-rule:nonzero;stroke:none;stroke-width:1;stroke-linecap:butt;stroke-linejoin:miter;marker:none;marker-start:none;marker-mid:none;marker-end:none;stroke-miterlimit:4;stroke-dasharray:none;stroke-dashoffset:0;stroke-opacity:1;visibility:visible;display:block;overflow:visible;filter:url(#filter5830);enable-background:accumulate"
       id="rect5796"
       width="35.125"
       height="6.5"
       x="6.8749995"
       y="35.875"
       rx="3.2499998"
       ry="5.28125"
       transform="matrix(1,0,0,0.6153846,0,15.798077)" />
    <rect
       style="opacity:1;color:#000000;fill:url(#linearGradient5784);fill-opacity:1;fill-rule:nonzero;stroke:#8f5902;stroke-width:1;stroke-linecap:butt;stroke-linejoin:miter;marker:none;marker-start:none;marker-mid:none;marker-end:none;stroke-miterlimit:4;stroke-dasharray:none;stroke-dashoffset:0;stroke-opacity:1;visibility:visible;display:block;overflow:visible;enable-background:accumulate"
       id="rect4613"
       width="29.999996"
       height="31.999998"
       x="9.5"
       y="-40.5"
       rx="2.7499998"
       ry="2.75"
       transform="scale(1,-1)" />
    <path
       sodipodi:nodetypes="ccccccccc"
       id="path5674"
       d="M 16.722015,14.506832 L 32.354478,14.506832 C 33.32675,14.551026 33.381283,12.617748 33.381283,12.617748 L 30.497073,10.307271 L 30.506162,9.5527475 C 30.506162,9.5527475 18.491032,9.5321977 18.491032,9.5321977 L 18.491032,10.422399 L 15.890165,12.665036 C 15.890165,12.665036 15.838132,14.462638 16.722015,14.506832 z"
       style="opacity:0.44117647;color:#000000;fill:#000000;fill-opacity:1;fill-rule:nonzero;stroke:none;stroke-width:1;stroke-linecap:butt;stroke-linejoin:miter;marker:none;marker-start:none;marker-mid:none;marker-end:none;stroke-miterlimit:4;stroke-dasharray:none;stroke-dashoffset:0;stroke-opacity:1;visibility:visible;display:block;overflow:visible;filter:url(#filter5766);enable-background:accumulate"
       transform="matrix(1.0502474,0,0,1.0502474,-1.2378669,-1.6664683)" />
    <rect
       transform="scale(1,-1)"
       ry="1.2499995"
       rx="1.2499995"
       y="-39.289101"
       x="10.635226"
       height="29.578182"
       width="27.729544"
       id="rect5786"
       style="opacity:0.41764706;color:#000000;fill:none;fill-opacity:1;fill-rule:nonzero;stroke:url(#linearGradient5794);stroke-width:0.99999994;stroke-linecap:butt;stroke-linejoin:miter;marker:none;marker-start:none;marker-mid:none;marker-end:none;stroke-miterlimit:4;stroke-dasharray:none;stroke-dashoffset:0;stroke-opacity:1;visibility:visible;display:block;overflow:visible;enable-background:accumulate" />
    <path
       style="opacity:1;color:#000000;fill:url(#linearGradient5592);fill-opacity:1.0;fill-rule:nonzero;stroke:#555753;stroke-width:1;stroke-linecap:butt;stroke-linejoin:miter;marker:none;marker-start:none;marker-mid:none;marker-end:none;stroke-miterlimit:4;stroke-dasharray:none;stroke-dashoffset:0;stroke-opacity:1;visibility:visible;display:block;overflow:visible;enable-background:accumulate"
       d="M 16.722015,12.506832 L 32.354478,12.506832 C 33.32675,12.551026 33.381283,10.617748 33.381283,10.617748 L 30.497073,8.3072713 L 30.506162,4.5527475 C 30.506162,3.7301333 29.81436,2.6194691 28.807357,2.6194691 L 20.287314,2.5310808 C 19.074886,2.5310808 18.491032,3.719232 18.491032,4.5321977 L 18.491032,8.4223989 L 15.890165,10.665036 C 15.890165,10.665036 15.838132,12.462638 16.722015,12.506832 z"
       id="path5584"
       sodipodi:nodetypes="ccccccccccc" />
    <rect
       style="opacity:0.46470588;color:#000000;fill:#ffffff;fill-opacity:1;fill-rule:nonzero;stroke:none;stroke-width:1;stroke-linecap:butt;stroke-linejoin:miter;marker:none;marker-start:none;marker-mid:none;marker-end:none;stroke-miterlimit:4;stroke-dasharray:none;stroke-dashoffset:0;stroke-opacity:1;visibility:visible;display:block;overflow:visible;enable-background:accumulate"
       id="rect5594"
       width="15"
       height="1.0416322"
       x="17"
       y="10"
       rx="0.52081609"
       ry="0.52081609" />
    <rect
       ry="0.52081609"
       rx="0.52081609"
       y="4"
       x="20"
       height="1.0416322"
       width="9"
       id="rect5596"
       style="opacity:0.53529412;color:#000000;fill:#ffffff;fill-opacity:1;fill-rule:nonzero;stroke:none;stroke-width:1;stroke-linecap:butt;stroke-linejoin:miter;marker:none;marker-start:none;marker-mid:none;marker-end:none;stroke-miterlimit:4;stroke-dasharray:none;stroke-dashoffset:0;stroke-opacity:1;visibility:visible;display:block;overflow:visible;enable-background:accumulate;filter:url(#filter5670)" />
    <g
       id="g5945"
       transform="translate(-64.000009,1.3465954)">
      <g
         transform="matrix(0.5454547,0,0,0.5454547,106.45908,17.135117)"
         id="g5646">
        <g
           transform="matrix(1.1,0,0,1,-43.74165,5.918957)"
           id="layer6"
           inkscape:label="Shadow">
          <g
             id="g2043"
             inkscape:label="Shadow"
             transform="matrix(1,0,0,0.555556,-4.549998e-7,13.88887)">
            <g
               style="display:inline"
               id="g2036"
               inkscape:label="Shadow">
              <g
                 id="g3712"
                 style="opacity:0.4"
                 transform="matrix(1.052632,0,0,1.285713,-1.263158,-13.42854)" />
            </g>
          </g>
          <g
             id="g2285"
             inkscape:label="pixmap"
             style="display:inline"
             transform="translate(50.6887,6.21499)" />
          <g
             transform="matrix(0.186703,0,0,0.186703,29.5814,63.83798)"
             id="g891" />
        </g>
        <g
           style="display:inline"
           inkscape:label="Base"
           id="g5657" />
        <g
           id="layer5"
           inkscape:label="Text"
           style="display:inline">
          <rect
             style="color:#000000;fill:url(#linearGradient5968);fill-opacity:1;fill-rule:evenodd;stroke:#939393;stroke-width:1.8333329;stroke-linecap:butt;stroke-linejoin:miter;marker:none;marker-start:none;marker-mid:none;marker-end:none;stroke-miterlimit:4;stroke-dasharray:none;stroke-dashoffset:0;stroke-opacity:1;visibility:visible;display:inline;overflow:visible"
             id="rect2373"
             width="38.499989"
             height="38.499989"
             x="-36.591621"
             y="5.4189425"
             rx="2.6242812"
             ry="2.6242814"
             inkscape:r_cx="true"
             inkscape:r_cy="true" />
          <rect
             inkscape:r_cy="true"
             inkscape:r_cx="true"
             ry="1.0501654"
             rx="1.0501657"
             y="7.252274"
             x="-34.758289"
             height="34.833324"
             width="34.833324"
             id="rect2423"
             style="color:#000000;fill:none;fill-opacity:1;fill-rule:evenodd;stroke:#ffffff;stroke-width:1.8333317;stroke-linecap:butt;stroke-linejoin:miter;marker:none;marker-start:none;marker-mid:none;marker-end:none;stroke-miterlimit:4;stroke-dasharray:none;stroke-dashoffset:0;stroke-opacity:1;visibility:visible;display:inline;overflow:visible" />
        </g>
      </g>
      <rect
         inkscape:r_cy="true"
         inkscape:r_cx="true"
         ry="0"
         rx="0"
         y="23.590904"
         x="89.000008"
         height="2.0625005"
         width="16"
         id="rect6916"
         style="opacity:1;color:#000000;fill:#adaeab;fill-opacity:1;fill-rule:evenodd;stroke:none;stroke-width:1;stroke-linecap:butt;stroke-linejoin:miter;marker:none;marker-start:none;marker-mid:none;marker-end:none;stroke-miterlimit:4;stroke-dasharray:none;stroke-dashoffset:0;stroke-opacity:1;visibility:visible;display:inline;overflow:visible;enable-background:accumulate" />
      <rect
         inkscape:r_cy="true"
         inkscape:r_cx="true"
         ry="0"
         rx="0"
         y="27.590904"
         x="89.000008"
         height="2.0625005"
         width="16"
         id="rect5972"
         style="opacity:1;color:#000000;fill:#adaeab;fill-opacity:1;fill-rule:evenodd;stroke:none;stroke-width:1;stroke-linecap:butt;stroke-linejoin:miter;marker:none;marker-start:none;marker-mid:none;marker-end:none;stroke-miterlimit:4;stroke-dasharray:none;stroke-dashoffset:0;stroke-opacity:1;visibility:visible;display:inline;overflow:visible;enable-background:accumulate" />
      <rect
         inkscape:r_cy="true"
         inkscape:r_cx="true"
         ry="0"
         rx="0"
         y="31.64636"
         x="89.000008"
         height="2.0070443"
         width="16"
         id="rect5976"
         style="opacity:1;color:#000000;fill:#adaeab;fill-opacity:1;fill-rule:evenodd;stroke:none;stroke-width:1;stroke-linecap:butt;stroke-linejoin:miter;marker:none;marker-start:none;marker-mid:none;marker-end:none;stroke-miterlimit:4;stroke-dasharray:none;stroke-dashoffset:0;stroke-opacity:1;visibility:visible;display:inline;overflow:visible;enable-background:accumulate" />
      <rect
         inkscape:r_cy="true"
         inkscape:r_cx="true"
         ry="0"
         rx="0"
         y="35.590904"
         x="89.000008"
         height="2.0625005"
         width="9.000001"
         id="rect5980"
         style="opacity:1;color:#000000;fill:#adaeab;fill-opacity:1;fill-rule:evenodd;stroke:none;stroke-width:1;stroke-linecap:butt;stroke-linejoin:miter;marker:none;marker-start:none;marker-mid:none;marker-end:none;stroke-miterlimit:4;stroke-dasharray:none;stroke-dashoffset:0;stroke-opacity:1;visibility:visible;display:inline;overflow:visible;enable-background:accumulate" />
    </g>
  </g>
</svg>

<svg xmlns="http://www.w3.org/2000/svg" xmlns:xlink="http://www.w3.org/1999/xlink" width="48" height="48" version="1.0"><defs><linearGradient id="c"><stop offset="0" stop-color="#fff"/><stop offset="1" stop-color="#fff" stop-opacity="0"/></linearGradient><linearGradient id="b"><stop offset="0" stop-color="#e2b369"/><stop offset="1" stop-color="#c79b55"/></linearGradient><linearGradient id="a"><stop offset="0" stop-color="#bfbcb3"/><stop offset="1" stop-color="#9c988a"/></linearGradient><linearGradient xlink:href="#a" id="i" x1="24.635" y1="7.203" x2="24.635" y2="12.381" gradientUnits="userSpaceOnUse"/><linearGradient xlink:href="#b" id="f" gradientUnits="userSpaceOnUse" x1="25.5" y1="-13.625" x2="26" y2="-39.125"/><linearGradient xlink:href="#c" id="h" x1="24.5" y1="-38.5" x2="24.5" y2="-1.625" gradientUnits="userSpaceOnUse"/><linearGradient id="d"><stop offset="0" stop-color="#fff"/><stop offset="1" stop-color="#ddd"/></linearGradient><linearGradient xlink:href="#d" id="k" gradientUnits="userSpaceOnUse" gradientTransform="matrix(.97161 0 0 1.28333 -40.478 -6.131)" x1="37.927" y1="37.669" x2="5.496" y2="10.983"/><filter x="-.085" width="1.171" y="-.737" height="2.474" id="j"><feGaussianBlur stdDeviation=".384"/></filter><filter x="-.091" width="1.181" y="-.319" height="1.638" id="g"><feGaussianBlur stdDeviation=".793"/></filter><filter x="-.084" width="1.167" y="-.452" height="1.904" id="e"><feGaussianBlur stdDeviation="1.469"/></filter></defs><rect ry="7.273" rx="4.486" y="38.438" x="19.515" height="6.5" width="35.125" style="marker:none" transform="matrix(.7245 0 0 .44686 6.172 23.28)" opacity=".353" color="#000" display="block" overflow="visible" filter="url(#e)" enable-background="accumulate"/><rect style="marker:none" width="35.125" height="6.5" x="6.875" y="35.875" rx="3.25" ry="5.281" transform="matrix(1 0 0 .61538 0 15.798)" opacity=".418" color="#000" display="block" overflow="visible" filter="url(#e)" enable-background="accumulate"/><rect style="marker:none" width="30" height="32" x="9.5" y="-40.5" rx="2.75" ry="2.75" transform="scale(1 -1)" color="#000" fill="url(#f)" stroke="#8f5902" display="block" overflow="visible" enable-background="accumulate"/><path d="M16.722 14.507h15.632c.973.044 1.027-1.89 1.027-1.89l-2.884-2.31.01-.754-12.016-.02v.89l-2.6 2.242s-.053 1.798.831 1.842z" style="marker:none" transform="matrix(1.05025 0 0 1.05025 -1.238 -1.666)" opacity=".441" color="#000" display="block" overflow="visible" filter="url(#g)" enable-background="accumulate"/><rect transform="scale(1 -1)" ry="1.25" rx="1.25" y="-39.289" x="10.635" height="29.578" width="27.73" style="marker:none" opacity=".418" color="#000" fill="none" stroke="url(#h)" display="block" overflow="visible" enable-background="accumulate"/><path style="marker:none" d="M16.722 12.507h15.632c.973.044 1.027-1.89 1.027-1.89l-2.884-2.31.01-3.754c0-.823-.693-1.934-1.7-1.934l-8.52-.088c-1.212 0-1.796 1.188-1.796 2.001v3.89l-2.6 2.243s-.053 1.798.831 1.842z" color="#000" fill="url(#i)" stroke="#555753" display="block" overflow="visible" enable-background="accumulate"/><rect style="marker:none" width="15" height="1.042" x="17" y="10" rx=".521" ry=".521" opacity=".465" color="#000" fill="#fff" display="block" overflow="visible" enable-background="accumulate"/><rect ry=".521" rx=".521" y="4" x="20" height="1.042" width="9" style="marker:none" opacity=".535" color="#000" fill="#fff" display="block" overflow="visible" enable-background="accumulate" filter="url(#j)"/><g transform="translate(-64 1.347)"><g color="#000" stroke-width="1.833" transform="matrix(.54545 0 0 .54545 106.46 17.135)"><rect style="marker:none" width="38.5" height="38.5" x="-36.592" y="5.419" rx="2.624" ry="2.624" fill="url(#k)" fill-rule="evenodd" stroke="#939393" overflow="visible"/><rect ry="1.05" rx="1.05" y="7.252" x="-34.758" height="34.833" width="34.833" style="marker:none" fill="none" stroke="#fff" overflow="visible"/></g><rect ry="0" rx="0" y="23.591" x="89" height="2.063" width="16" style="marker:none" color="#000" fill="#adaeab" fill-rule="evenodd" overflow="visible" enable-background="accumulate"/><rect ry="0" rx="0" y="27.591" x="89" height="2.063" width="16" style="marker:none" color="#000" fill="#adaeab" fill-rule="evenodd" overflow="visible" enable-background="accumulate"/><rect ry="0" rx="0" y="31.646" x="89" height="2.007" width="16" style="marker:none" color="#000" fill="#adaeab" fill-rule="evenodd" overflow="visible" enable-background="accumulate"/><rect ry="0" rx="0" y="35.591" x="89" height="2.063" width="9" style="marker:none" color="#000" fill="#adaeab" fill-rule="evenodd" overflow="visible" enable-background="accumulate"/></g></svg>
